X:368
T:Take Not A Woman's Anger Ill. (p)1696.PLFD.368
M:4/4
L:1/8
Q:1/2=100
S:Playford, Dancing Master,9th Ed,1st Supp.,1696.
O:England
N:"for if one won't,another will".
H:1696.
Z:Chris Partington
K:Bb
f2edc2d2|edcBc2BA|B2AGF2B2|G2FED2d2|
B2AGc4|F2GA BAGF|1F8:|2F6|
|:A2|c2BA Bcd2|GAB2G2z2|e2z2f2ed|c=Bc2cde2|
c2cde2dc|d2cB ABc2|F2z2def2|
B2z2Bcd2|G2A2B2AG|F2B2Bcd2|B8|]
